img/source-icon/Digital-Cinema.svg

<svg width="72" height="72" viewBox="0 0 72 72" fill="none" xmlns="http://www.w3.org/2000/svg">
<path d="M67.8321 64.3398C67.4183 64.9047 67.0246 65.4423 66.6159 66C60.0318 61.1093 57.3627 54.3857 57.2576 46.3573C57.1662 46.4883 57.1123 46.5552 57.0691 46.6294C52.9837 53.6567 46.9775 58.0969 39.0672 59.9356C36.2692 60.5861 33.4238 60.7193 30.5639 60.4134C23.7769 59.6873 18.014 56.8641 13.3436 51.8885C9.73958 48.0492 7.4029 43.5198 6.4832 38.329C4.98202 29.8523 6.974 22.2371 12.5246 15.6545C16.6582 10.7523 21.9699 7.74128 28.2675 6.49558C30.5848 6.03717 32.9251 5.8954 35.2804 6.07603C47.4791 7.01156 57.4512 15.661 60.0103 27.3285C60.7666 30.7763 60.7889 34.2385 60.183 37.7173C59.662 40.7074 59.3338 43.7206 59.3777 46.7625C59.4302 50.3967 60.052 53.905 61.7093 57.1829C63.1033 59.9399 65.0643 62.2168 67.5104 64.0872C67.6054 64.1599 67.6982 64.2347 67.8321 64.3398ZM19.5102 18.0408C15.5241 17.9897 12.0914 21.3267 12.0122 25.2783C11.9287 29.4738 15.1671 32.8763 19.2569 32.9698C23.5114 33.067 26.8872 29.7883 26.9513 25.5848C27.0146 21.4685 23.6855 18.0941 19.5102 18.0408ZM56.2393 31.2535C56.2199 27.1148 52.8563 23.7591 48.7543 23.7857C44.6077 23.8131 41.2859 27.1752 41.306 31.3254C41.3254 35.4166 44.6999 38.7493 48.8076 38.7349C52.9074 38.7198 56.2588 35.3461 56.2393 31.2535ZM28.8152 17.9343C28.7979 22.0233 32.1536 25.4028 36.2476 25.4193C40.351 25.4359 43.7348 22.0946 43.7528 18.0092C43.7708 13.859 40.436 10.4817 36.3052 10.4687C32.1939 10.4551 28.8332 13.805 28.8152 17.9343ZM22.1757 51.2754C26.3295 51.2819 29.6536 47.9787 29.66 43.8379C29.6658 39.7064 26.359 36.3694 22.2491 36.3593C18.0946 36.3493 14.7555 39.6524 14.7461 43.7825C14.7353 47.9355 18.0407 51.2689 22.1757 51.2754ZM32.6545 47.3166C32.6408 51.4222 35.9476 54.7728 40.033 54.7944C44.1925 54.816 47.5554 51.5208 47.5741 47.4066C47.5928 43.2326 44.2925 39.8892 40.1409 39.8755C35.9994 39.8618 32.6681 43.1722 32.6545 47.3166ZM28.4057 33.2872C28.41 35.9959 30.5884 38.1649 33.3007 38.1613C35.9792 38.1577 38.1475 35.9714 38.1468 33.2742C38.1461 30.5871 35.9677 28.3994 33.2878 28.3943C30.5869 28.39 28.4014 30.5806 28.4057 33.2872Z" fill="#52525A"/>
</svg>

<svg width="72" height="72" fill="none" xmlns="http://www.w3.org/2000/svg"><path d="M67.832 64.34 66.616 66c-6.584-4.89-9.253-11.614-9.358-19.643-.092.131-.146.198-.189.272-4.085 7.028-10.092 11.468-18.002 13.307-2.798.65-5.643.783-8.503.477-6.787-.726-12.55-3.549-17.22-8.524-3.604-3.84-5.941-8.37-6.86-13.56-1.502-8.477.49-16.092 6.04-22.675 4.134-4.902 9.446-7.913 15.743-9.158a25.82 25.82 0 0 1 7.013-.42c12.2.936 22.171 9.585 24.73 21.252.757 3.448.779 6.91.173 10.39-.521 2.99-.85 6.003-.805 9.044.052 3.635.674 7.143 2.331 10.42 1.394 2.758 3.355 5.035 5.801 6.905.095.073.188.148.322.253zM19.51 18.04c-3.986-.05-7.419 3.287-7.498 7.238-.083 4.196 3.155 7.598 7.245 7.692 4.254.097 7.63-3.182 7.694-7.385.064-4.117-3.265-7.49-7.44-7.544zm36.73 13.213c-.02-4.138-3.384-7.494-7.486-7.467a7.487 7.487 0 0 0-7.448 7.54c.02 4.09 3.394 7.423 7.502 7.409 4.1-.015 7.45-3.389 7.431-7.482zM28.814 17.934c-.017 4.09 3.339 7.469 7.433 7.485 4.103.017 7.487-3.324 7.505-7.41.018-4.15-3.317-7.527-7.448-7.54-4.111-.014-7.472 3.336-7.49 7.465zm-6.64 33.341c4.154.007 7.479-3.296 7.485-7.437.006-4.132-3.301-7.469-7.41-7.479-4.155-.01-7.495 3.293-7.504 7.423-.01 4.154 3.295 7.487 7.43 7.493zm10.48-3.958c-.014 4.105 3.293 7.456 7.378 7.477 4.16.022 7.522-3.273 7.541-7.387.019-4.174-3.282-7.518-7.433-7.531a7.437 7.437 0 0 0-7.486 7.44zm-4.25-14.03a4.869 4.869 0 0 0 4.896 4.874c2.678-.003 4.846-2.19 4.846-4.887 0-2.687-2.18-4.875-4.86-4.88a4.876 4.876 0 0 0-4.881 4.893z" fill="#52525A"/></svg>
